dist/img/nav_left.svg

<svg width="20" height="16" viewBox="0 0 20 16" fill="none" xmlns="http://www.w3.org/2000/svg">
<path d="M18.4425 9.16487H3.62634L7.07999 13.6789C7.45989 14.1805 7.45989 14.9556 7.07999 15.4572C6.70009 15.9587 6.11297 15.9587 5.73307 15.4572L1.90735e-06 7.88817L0.656197 7.02184L5.73307 0.36477C5.90575 0.136789 6.14751 0 6.38926 0C6.63102 0 6.87277 0.136789 7.04546 0.36477C7.42536 0.86633 7.42536 1.64147 7.04546 2.14303L3.62634 6.65707H18.4425C18.9606 6.65707 19.375 7.20422 19.375 7.93377C19.375 8.61771 18.9606 9.16487 18.4425 9.16487Z" fill="black"/>
</svg>

<svg fill="none" xmlns="http://www.w3.org/2000/svg" viewBox="0 0 20 16"><path d="M18.442 9.165H3.626l3.454 4.514c.38.502.38 1.277 0 1.778-.38.502-.967.502-1.347 0L0 7.888l.656-.866L5.733.365C5.906.137 6.148 0 6.39 0c.242 0 .484.137.656.365.38.501.38 1.276 0 1.778l-3.42 4.514h14.816c.519 0 .933.547.933 1.277 0 .684-.414 1.23-.933 1.23z" fill="#000"/></svg>
